X:4
T:Scan Tester's Schottische No.1
C:No.4 in Will Duke's workshop
N:by ear from Will duke
R:Somewhat doubtful time signature
Q:1/4=140
I:abc2nwc
M:4/4
L:1/8
K:G
D|G3A B3d|c3/2B/2 A3/2G/2 F3/2E/2 D2|
A3B c3/2B/2 c3/2A/2|G3/2A/2 B3/2c/2 d3||
D|G7/2A/2 B7/2d/2|c3/2B/2 A3/2G/2 F3/2E/2 D2|
A3B c3/2B/2 c3/2A/2|G2B2G7/2|]
[|c/2|B2G2d4| (3ded G3/2A/2 B7/2d/2|c2F2A4|G3/2A/2 B3/2c/2 d7/2c/2||
B2G2d4| (3ded G3/2A/2 B7/2d/2|c2F2A3/2c/2|BA G2B2G2|]


